X:361
T:AIR XXV. Love is the Cause of my Mourning.
B:Joseph Mitchell: "The Highland Fair" (1731)
Z:Jack Campin <http://www.purr.demon.co.uk/jack/jack.html>
N:the gracenotes are written as quavers in the book
M:3/4
L:1/8
K:F
CD| F2  (A>B) (A/B/c) |    A3    G   F2 | f3    g  (f/g/a)|({c}A4)
Ac| d2  (fd)  (cA)    |   (cd) (cA) (GF)|(ag) (fd) (cA)   |   (GA   GF)
D2| F2  (A>B)  A(B/c/)|    A3    G   F2 | f3    g  (f/g/)a|({c}A4)
fc|(A2   cA)  (GF)    |({F}G3)   F  (GA)| c2  (A>d  G>d)  |    A4    ||\
c2|(fe) (fg)  (ag)    |   (fg) (fd)  c2 |(dc) (da) (gf)   |   (df) (dc)
A2|(cA) (cd)  (fd)    |   (cd) (cA) (GF)|(ag) (fd) (cA)   |   (GA) (GF)
D2| f>g  a2    a2     |  (Ta3    g)  f2 | f3    g  (f/g/a)|({c}A4)
f2| A2  (cA)  (GF)    |({F}G3)   F  (GA)| c2  (A>c  G>c)  |    A4    |]
